_includes/icons/ios-share.svg

<svg fill="#666" height="50" viewBox="0 0 50 50" width="50" xmlns="http://www.w3.org/2000/svg"><path d="m40 0c-5.46875 0-9.933594 4.421875-10 9.875l-14.09375 7.0625c-1.65625-1.21875-3.699219-1.9375-5.90625-1.9375-5.511719 0-10 4.488281-10 10s4.488281 10 10 10c2.207031 0 4.25-.71875 5.90625-1.9375l14.09375 7.0625c.066406 5.453125 4.53125 9.875 10 9.875 5.511719 0 10-4.488281 10-10s-4.488281-10-10-10c-2.125 0-4.097656.675781-5.71875 1.8125l-13.65625-6.8125 13.65625-6.8125c1.621094 1.136719 3.59375 1.8125 5.71875 1.8125 5.511719 0 10-4.488281 10-10s-4.488281-10-10-10zm0 2c4.429688 0 8 3.570313 8 8 0 4.429688-3.570312 8-8 8-1.636719 0-3.140625-.507812-4.40625-1.34375-.125-.417969-.503906-.707031-.9375-.71875-.003906-.003906-.027344.003906-.03125 0-1.394531-1.261719-2.332031-3.027344-2.5625-5 .210938-.351562.1875-.796875-.0625-1.125.101563-4.339844 3.632813-7.8125 8-7.8125zm-9.78125 10c.371094 1.808594 1.230469 3.4375 2.4375 4.75l-12.84375 6.4375c-.339844-1.828125-1.15625-3.476562-2.34375-4.8125zm-20.21875 5c1.851563 0 3.554688.609375 4.90625 1.65625.011719.007813.019531.023438.03125.03125.007813.019531.019531.042969.03125.0625.085938.105469.191406.1875.3125.25.003906.003906.027344-.003906.03125 0 1.496094 1.328125 2.484375 3.222656 2.65625 5.34375-.113281.273438-.101562.582031.03125.84375-.019531.082031-.03125.164063-.03125.25-.121094 2.21875-1.128906 4.191406-2.6875 5.5625-.09375.058594-.179687.132813-.25.21875-1.375 1.113281-3.117187 1.78125-5.03125 1.78125-4.429687 0-8-3.570312-8-8 0-4.429687 3.570313-8 8-8zm9.8125 9.8125 12.84375 6.4375c-1.207031 1.3125-2.066406 2.941406-2.4375 4.75l-12.75-6.375c1.1875-1.335937 2.003906-2.984375 2.34375-4.8125zm20.1875 5.1875c4.429688 0 8 3.570313 8 8 0 4.429688-3.570312 8-8 8-4.429687 0-8-3.570312-8-8 0-2.40625 1.046875-4.566406 2.71875-6.03125.023438-.019531.042969-.039062.0625-.0625.003906-.003906.027344.003906.03125 0 .160156-.066406.300781-.175781.40625-.3125 1.335938-.996094 2.980469-1.59375 4.78125-1.59375z"/></svg>

<svg xmlns="http://www.w3.org/2000/svg" viewBox="0 0 50 50" width="50" height="50" fill="#666"><path d="M 40 0 C 34.53125 0 30.066406 4.421875 30 9.875 L 15.90625 16.9375 C 14.25 15.71875 12.207031 15 10 15 C 4.488281 15 0 19.488281 0 25 C 0 30.511719 4.488281 35 10 35 C 12.207031 35 14.25 34.28125 15.90625 33.0625 L 30 40.125 C 30.066406 45.578125 34.53125 50 40 50 C 45.511719 50 50 45.511719 50 40 C 50 34.488281 45.511719 30 40 30 C 37.875 30 35.902344 30.675781 34.28125 31.8125 L 20.625 25 L 34.28125 18.1875 C 35.902344 19.324219 37.875 20 40 20 C 45.511719 20 50 15.511719 50 10 C 50 4.488281 45.511719 0 40 0 Z M 40 2 C 44.429688 2 48 5.570313 48 10 C 48 14.429688 44.429688 18 40 18 C 38.363281 18 36.859375 17.492188 35.59375 16.65625 C 35.46875 16.238281 35.089844 15.949219 34.65625 15.9375 C 34.652344 15.933594 34.628906 15.941406 34.625 15.9375 C 33.230469 14.675781 32.292969 12.910156 32.0625 10.9375 C 32.273438 10.585938 32.25 10.140625 32 9.8125 C 32.101563 5.472656 35.632813 2 40 2 Z M 30.21875 12 C 30.589844 13.808594 31.449219 15.4375 32.65625 16.75 L 19.8125 23.1875 C 19.472656 21.359375 18.65625 19.710938 17.46875 18.375 Z M 10 17 C 11.851563 17 13.554688 17.609375 14.90625 18.65625 C 14.917969 18.664063 14.925781 18.679688 14.9375 18.6875 C 14.945313 18.707031 14.957031 18.730469 14.96875 18.75 C 15.054688 18.855469 15.160156 18.9375 15.28125 19 C 15.285156 19.003906 15.308594 18.996094 15.3125 19 C 16.808594 20.328125 17.796875 22.222656 17.96875 24.34375 C 17.855469 24.617188 17.867188 24.925781 18 25.1875 C 17.980469 25.269531 17.96875 25.351563 17.96875 25.4375 C 17.847656 27.65625 16.839844 29.628906 15.28125 31 C 15.1875 31.058594 15.101563 31.132813 15.03125 31.21875 C 13.65625 32.332031 11.914063 33 10 33 C 5.570313 33 2 29.429688 2 25 C 2 20.570313 5.570313 17 10 17 Z M 19.8125 26.8125 L 32.65625 33.25 C 31.449219 34.5625 30.589844 36.191406 30.21875 38 L 17.46875 31.625 C 18.65625 30.289063 19.472656 28.640625 19.8125 26.8125 Z M 40 32 C 44.429688 32 48 35.570313 48 40 C 48 44.429688 44.429688 48 40 48 C 35.570313 48 32 44.429688 32 40 C 32 37.59375 33.046875 35.433594 34.71875 33.96875 C 34.742188 33.949219 34.761719 33.929688 34.78125 33.90625 C 34.785156 33.902344 34.808594 33.910156 34.8125 33.90625 C 34.972656 33.839844 35.113281 33.730469 35.21875 33.59375 C 36.554688 32.597656 38.199219 32 40 32 Z"/></svg>
